Numix-Light-GalliumOS/22/panel/diodon-panel.svg

<?xml version="1.0" encoding="UTF-8" standalone="no"?>
<svg
   xmlns:dc="http://purl.org/dc/elements/1.1/"
   xmlns:cc="http://creativecommons.org/ns#"
   xmlns:rdf="http://www.w3.org/1999/02/22-rdf-syntax-ns#"
   xmlns:svg="http://www.w3.org/2000/svg"
   xmlns="http://www.w3.org/2000/svg"
   xmlns:sodipodi="http://sodipodi.sourceforge.net/DTD/sodipodi-0.dtd"
   xmlns:inkscape="http://www.inkscape.org/namespaces/inkscape"
   width="22"
   viewBox="0 0 22 22"
   height="22"
   id="svg3171"
   version="1.1"
   inkscape:version="0.91 r"
   sodipodi:docname="diodon-panel.svg">
  <metadata
     id="metadata3181">
    <rdf:RDF>
      <cc:Work
         rdf:about="">
        <dc:format>image/svg+xml</dc:format>
        <dc:type
           rdf:resource="http://purl.org/dc/dcmitype/StillImage" />
      </cc:Work>
    </rdf:RDF>
  </metadata>
  <sodipodi:namedview
     pagecolor="#ffffff"
     bordercolor="#666666"
     borderopacity="1"
     objecttolerance="10"
     gridtolerance="10"
     guidetolerance="10"
     inkscape:pageopacity="0"
     inkscape:pageshadow="2"
     inkscape:window-width="1280"
     inkscape:window-height="998"
     id="namedview3179"
     showgrid="false"
     inkscape:zoom="21.454545"
     inkscape:cx="11.755327"
     inkscape:cy="5.9633575"
     inkscape:window-x="0"
     inkscape:window-y="0"
     inkscape:window-maximized="1"
     inkscape:current-layer="svg3171" />
  <defs
     id="defs3173" />
  <path
     style="fill:#353535"
     d="m 19,16.120416 q 0,1.225134 -0.902846,2.05237 Q 17.194307,19 15.857161,19 14.314298,19 13.171443,17.952884 L 4.29143,9.827221 Q 3,8.623042 3,6.989524 3,5.324605 4.257137,4.162314 5.514296,3 7.331438,3 9.137155,3 10.451431,4.183246 l 6.914298,6.34555 q 0.114232,0.104664 0.114232,0.230369 0,0.167463 -0.348578,0.486905 -0.348556,0.319377 -0.531421,0.319377 -0.148503,0 -0.262857,-0.104663 L 9.411385,5.104768 Q 8.508538,4.298486 7.342813,4.298486 q -1.21142,0 -2.045727,0.785327 -0.834284,0.78535 -0.834284,1.895287 0,1.099472 0.868578,1.895288 l 8.868589,8.136128 q 0.720002,0.659688 1.657144,0.659688 0.731425,0 1.211419,-0.439784 0.479993,-0.439807 0.479993,-1.10996 0,-0.858635 -0.720003,-1.518323 L 10.188528,8.518379 Q 9.89138,8.267054 9.502819,8.267054 q -0.331442,0 -0.548581,0.199079 -0.217044,0.198862 -0.217044,0.502605 0,0.335077 0.285725,0.6178 l 4.685703,4.293202 q 0.114231,0.104663 0.114231,0.230368 0,0.167463 -0.354291,0.492138 -0.354265,0.324611 -0.537134,0.324611 -0.137078,0 -0.251432,-0.104664 L 7.994292,10.528992 Q 7.27429,9.89026 7.27429,8.968781 q 0,-0.858635 0.651415,-1.455503 0.651439,-0.596845 1.588579,-0.596845 1.005704,0 1.70286,0.659687 l 6.639995,6.083759 q 1.142854,1.026186 1.142854,2.460733 z"
     id="path3177" />
</svg>

<svg xmlns="http://www.w3.org/2000/svg" viewBox="0 0 22 22">
 <path d="m 19 16.12 q 0 1.225 -0.903 2.052 q -0.903 0.827 -2.24 0.827 -1.543 0 -2.686 -1.047 l -8.88 -8.126 q -1.291 -1.204 -1.291 -2.838 0 -1.665 1.257 -2.827 1.257 -1.162 3.074 -1.162 1.806 0 3.12 1.183 l 6.914 6.346 q 0.114 0.105 0.114 0.23 0 0.167 -0.349 0.487 -0.349 0.319 -0.531 0.319 -0.149 0 -0.263 -0.105 l -6.926 -6.356 q -0.903 -0.806 -2.069 -0.806 q -1.211 0 -2.046 0.785 -0.834 0.785 -0.834 1.895 0 1.099 0.869 1.895 l 8.869 8.136 q 0.72 0.66 1.657 0.66 0.731 0 1.211 -0.44 0.48 -0.44 0.48 -1.11 0 -0.859 -0.72 -1.518 l -6.64 -6.084 q -0.297 -0.251 -0.686 -0.251 q -0.331 0 -0.549 0.199 -0.217 0.199 -0.217 0.503 0 0.335 0.286 0.618 l 4.686 4.293 q 0.114 0.105 0.114 0.23 0 0.167 -0.354 0.492 -0.354 0.325 -0.537 0.325 -0.137 0 -0.251 -0.105 l -4.686 -4.293 q -0.72 -0.639 -0.72 -1.56 q 0 -0.859 0.651 -1.456 0.651 -0.597 1.589 -0.597 1.01 0 1.703 0.66 l 6.64 6.084 q 1.143 1.026 1.143 2.461 z" style="fill:#353535"/>
</svg>
